fs/credit_card_clock_24_regular.svg

<svg viewBox="0 0 24 24" fill="none" xmlns="http://www.w3.org/2000/svg" height="1em" width="1em">
  <path d="M5.25 5C3.45507 5 2 6.45507 2 8.25V15.75C2 17.5449 3.45507 19 5.25 19H11.1739C11.0602 18.5185 11 18.0163 11 17.5H5.25C4.2835 17.5 3.5 16.7165 3.5 15.75V11H22V8.25C22 6.45507 20.5449 5 18.75 5H5.25ZM20.5 8.25V9.5H3.5V8.25C3.5 7.2835 4.2835 6.5 5.25 6.5H18.75C19.7165 6.5 20.5 7.2835 20.5 8.25ZM17.5 12C20.5376 12 23 14.4624 23 17.5C23 20.5376 20.5376 23 17.5 23C14.4624 23 12 20.5376 12 17.5C12 14.4624 14.4624 12 17.5 12ZM19.5 17.5001H17.5L17.5 14.9999C17.5 14.7238 17.2761 14.4999 17 14.4999C16.7239 14.4999 16.5 14.7238 16.5 14.9999L16.5 17.9985L16.5 18.0001C16.5 18.2762 16.7239 18.5001 17 18.5001H19.5C19.7761 18.5001 20 18.2762 20 18.0001C20 17.7239 19.7761 17.5001 19.5 17.5001Z" fill="#212121"/>
</svg>

<svg viewBox="0 0 24 24" fill="none" xmlns="http://www.w3.org/2000/svg" height="1em" width="1em">
  <path d="M5.25 5A3.25 3.25 0 0 0 2 8.25v7.5A3.25 3.25 0 0 0 5.25 19h5.924A6.52 6.52 0 0 1 11 17.5H5.25a1.75 1.75 0 0 1-1.75-1.75V11H22V8.25A3.25 3.25 0 0 0 18.75 5H5.25ZM20.5 8.25V9.5h-17V8.25c0-.966.784-1.75 1.75-1.75h13.5c.966 0 1.75.784 1.75 1.75Zm-3 3.75a5.5 5.5 0 1 1 0 11 5.5 5.5 0 0 1 0-11Zm2 5.5h-2V15a.5.5 0 0 0-1 0v3a.5.5 0 0 0 .5.5h2.5a.5.5 0 0 0 0-1Z" fill="#212121"/>
</svg>
